!!!COM: Bach, Johann Sebastian
!!!CDT: 1685///-1750///
!!!CNT@EN: German
!!!OTL: Courante from Cello Suite No. 1 in G Major, BWV 1007
!!!OPR: Cello Suite No. 1 in G Major, BWV 1007
!!!OMD: Courante
!!!OMV: 3
!!!ODT: 1720///
!!!SCT: BWV 1007
!!!SCA: Thematisch-systematisches Verzeichnis der musikalischen Werke Johann Sebastian Bach: Bach-Werke-Verzeichnis (Schmieder)
**kern
*Icello
*>[A,A,B,B]
*>norep[A,B]
*>A
*clefF4
*k[f#]
*M3/4
*MM112
8G\
=1
8G\L
8D\J
8GG\L
(16B\L
16c\JJ
16d\LL
16c\
16B\
16A\JJ)
=2
8B\L
8D\J
8GG\L
(16G\L
16A\JJ
8B\L
8G\J)
=3
8E\L
8C\J
8CC\L
(16A\L
16B\JJ
16c\LL
16B\
16A\
16G\JJ)
=4
8F#\L
8D\J
8DD/L
16D/L
16E/JJ
(16F#\LL
16G\
16A\
16B\JJ)
=5
(16c\LL
16B\
16c\)
16A\JJ
(16c\LL
16B\
16c\)
(16A\JJ
16D\LL
16c\
16B\
16A\JJ)
=6
(16B\LL
16A\
16B\)
16G\JJ
(16B\LL
16A\
16B\)
(16G\JJ
16C\LL
16B\
16A\
16G\JJ)
=7
16F#\LL
(16A\
16d\)
(16F#\JJ
8G\L)
8BB\J
8DD/L
8F#/J
=8
4.GG/ 4.G/
(16B\LL
16A\JJ
16G\LL
16F#\
16E\
16D\JJ)
=9
8e\L
8c#\J
8A\L
(16B\L
16c#\JJ)
16d\LL
(16F#\
16E\
16D\JJ)
=10
8AA\L
8d\J
8c#\L
16B\L
16A\JJ
(16d\LL
16A\
16B\
16F#\JJ)
=11
(16G\LL
16F#\
16G\)
16E\JJ
(16G\LL
16F#\
16G\)
(16E\JJ
16AA\LL
16G\
16F#\
16E\JJ)
=12
(16F#\LL
16E\
16F#\)
16D\JJ
(16F#\LL
16E\
16F#\)
(16D\JJ
16GG\LL
16F#\
16E\
16D\JJ)
=13
(16d\LL
16c#\
16B\
16A\JJ)
8d\L
(16c#\L
16B\JJ)
(16A\LL
16G\
16F#\
16E\JJ)
=14
(16D\LL
16E\
16D\)
16F#\JJ
(16D\LL
16E\
16D\)
16G\JJ
(16D\LL
16E\
16D\)
16A\JJ
=15
(16D\LL
16E\
16D\)
16B\JJ
(16D\LL
16E\
16D\)
16c#\JJ
(16D\LL
16E\
16D\)
16d\JJ
=16
(16G\LL
16F#\
16E\
16D\JJ)
(16C#/LL
16BB/
16AA/)
16G/JJ
(8.F#\L
16E\Jk)
=17
(16A\LL
16G\)
(16B\
16A\JJ
16G\LL
16F#\
16E\
16D\JJ)
8AA/L
8C#/J
=18
2DD/
8r
=:|!|:
*>B
8A\
=19
8A\L
8F#\J
8D\L
(16E\L
16F#\JJ
16G\LL
16F#\
16E\
16D\JJ)
=20
8G\L
8E\J
8EE\L
(16G\L
16F#\JJ)
(16A\LL
16G\
16F#\
16E\JJ)
=21
(16Fn\LL
16E\
16F\)
16A\JJ
(16F\LL
16E\
16F\)
16A\JJ
(16c\LL
16B\)
16c\
16A\JJ
=22
[4d#\
16d#\LL]
16cn\
16B\
16A\JJ
(16G\LL
16F#\
16A\
16D#\JJ)
=23
8GG\L
8B\J
(16A\LL
16G\
16F#\
16E\JJ)
(8BB/L
8D#/J)
=24
4.EE/
(16E\LL
16F#\JJ
16G\LL
16A\
16B\
16c\JJ)
=25
8d\L
8Fn\J
8BB\L
(16E\L
16F\JJ
16G\LL
16F\
16E\
16D\JJ)
=26
8E\L
8C\J
8CC/L
(16C/L
16D/JJ
16E\LL
16F#\
16G\
16E\JJ)
=27
(16C#\LL
16G\)
16A\
16G\JJ
(16A\LL
16G\)
16C#\
16G\JJ
(16C#\LL
16G\
16A\
16G\JJ)
=28
(16Cn\LL
16F#\)
16A\
16F#\JJ
(16A\LL
16F#\)
16C\
16F#\JJ
(16C\LL
16F#\
16A\
16F#\JJ)
=29
(16BB\LL
16D\
16E\
16Fn\JJ)
16GG\LL
(16F\
16E\
16D\JJ)
(16E\LL
16d\
16c\
16B\JJ)
=30
(16F#\LL
16A\
16B\
16c\JJ)
16D\LL
(16c\
16B\
16A\JJ)
(8B\L
8GG\J)
=31
8CC\L
(16B\L
16A\JJ
16c\LL
16B\
16A\
16G\JJ)
8D\L
8F#\J
=32
(16GG/LL
16AA/
16GG/)
16BB/JJ
(16GG/LL
16AA/
16GG/)
16C/JJ
(16GG/LL
16AA/
16GG/)
16D/JJ
=33
(16GG/LL
16AA/
16GG/)
16E/JJ
(16GG/LL
16AA/
16GG/)
16F#/JJ
(16GG/LL
16AA/
16GG/)
16G/JJ
=34
(16c\LL
16B\
16A\
16G\JJ)
(16F#\LL
16E\
16D\)
16c\JJ
(8.B\L
16A\Jk)
=35
(16d\LL
16c\
16d\)
16B\JJ
(16d\LL
16c\
16d\)
(16B\JJ
16E\LL
16d\
16c\
16B\JJ)
=36
(16c\LL
16B\
16c\)
16A\JJ
(16c\LL
16B\
16c\)
(16A\JJ
16D\LL
16c\
16B\
16A\JJ)
=37
(16B\LL
16A\
16B\)
16G\JJ
16C\LL
(16B\
16A\
16G\JJ)
8D\L
8F#\J
=38
2GG/ 2G/
8r
==:|!
*-
!!!ENC: Craig Stuart Sapp
!!!END: 2004/12/01/
